launcher/android/assets/skins/day/svg/mysterieStart.svg

<svg enable-background="new 0 0 220.00 220.00" height="220" viewBox="0 0 220 220" width="220" xmlns="http://www.w3.org/2000/svg" xmlns:xlink="http://www.w3.org/1999/xlink"><linearGradient id="a" gradientTransform="matrix(-.966395140898 .257061143792 -.257061143792 -.966395140898 2.065211685697 .614896855393)" gradientUnits="objectBoundingBox" x1=".992414" x2="1.98393" y1=".442438" y2=".442438"><stop offset=".00925926" stop-color="#fff"/><stop offset="1" stop-color="#fcfcff" stop-opacity="0"/></linearGradient><linearGradient id="b"><stop offset=".00925926" stop-color="#fff"/><stop offset="1" stop-color="#fff" stop-opacity="0"/></linearGradient><linearGradient id="c" gradientTransform="matrix(-.968599743862 .24862529274 -.24862529274 -.968599743862 2.063126231446 .620166437066)" gradientUnits="objectBoundingBox" x1=".992401" x2="1.9844" xlink:href="#b" y1=".440365" y2=".440365"/><linearGradient id="d" gradientTransform="matrix(-.940434384383 .339975247143 -.339975247143 -.940434384383 2.119009965461 .542379285576)" gradientUnits="objectBoundingBox" x1="1.01199" x2="2.01995" xlink:href="#b" y1=".456821" y2=".456821"/><g stroke-linejoin="round"><ellipse cx="104.389" cy="177.873" fill="#d66919" rx="19" ry="19.2499" stroke="#000" stroke-width="5"/><path d="m77.8886 96.1233-17-7.5-9.0001-10.9997-4-10-.5-13 4-10.5 6-9.5 6.5-6.5 11-7.5 8.5-3.5 11-2 11.5005-.5 12-1 11.5 1.5 7.5 3.5 10 5 9 6.5 6.5 7 7 12 1 11-1.5 14-4.5 7.5-7.5 8-9 10-12 8.5004-12 10-6.5 11.5-3.5 8 .271 3.533-.584 3.154-2.875 1.5-10.8125-.187-4-3v-9l6.5005-10.5 8.5-12.5 11.5-13.0004 4.5-7 4-11.5v-10.5l-2.5-12-6-6-10-4.5-9-1-7.5005.5-9 3-6 5.5v6.5l2 6.5 7.5 5 5 3 1.5 5-1 5.5-3 4-3.5 3.5-6.5 1.5z" fill="#d66919" stroke="#000" stroke-width="5"/><g stroke-width=".2"><path d="m123.222 20.1233 11.333 7.6668 9.334 7.3335 8.333 10.3332 3.667 9.3334 1.333 12.3334-2 12-3.333 5.6666 4.63 1.5463 9.37-12.5463 1.666-9.6666-.333-13-7.203-11.7871-4.464-5.2129-1.666-2.3334-4.667-3-6.667-5-6.666-3-6-1.3334z" fill="url(#a)"/><path d="m80.0552 66.2068-2.9583-2.0416-2.375 5.7081 4 4.3335 4 4.6668 1 5.3332-.3334 6-.5416 2.0415 4.4167-.75 3.6667-2.0832 2.8333-2.6668-.0833-3.5.3332-3.4165-1-2.8332-4.6666-3-3.4167-2.1668-3-2.1666" fill="url(#c)"/><path d="m105.889 161.457 3.666 4.333 2.334 4.667-.334 6.667-1.333 6.666-2.333 5.667.666 3 3.36-.1 3.833-2.25 3.084-4.166 1.666-4.917s.809-3.712.391-5.234c-.365-1.325-1-5.333-1-5.333l-1.334-4-3.333-3-3-2z" fill="url(#d)"/></g></g></svg>

﻿<?xml version="1.0" encoding="utf-8"?>
<!DOCTYPE svg PUBLIC "-//W3C//DTD SVG 1.1//EN" "http://www.w3.org/Graphics/SVG/1.1/DTD/svg11.dtd">
<svg xmlns="http://www.w3.org/2000/svg" xmlns:xlink="http://www.w3.org/1999/xlink" version="1.1" baseProfile="full" width="220" height="220" viewBox="0 0 220.00 220.00" enable-background="new 0 0 220.00 220.00" xml:space="preserve">
	<ellipse fill="#D66919" fill-opacity="1" stroke-width="5" stroke-linejoin="round" stroke="#000000" stroke-opacity="1" cx="104.389" cy="177.873" rx="19" ry="19.2499"/>
	<path fill="#D66919" fill-opacity="1" stroke-width="5" stroke-linejoin="round" stroke="#000000" stroke-opacity="1" d="M 77.8886,96.1233L 60.8886,88.6233L 51.8885,77.6236L 47.8885,67.6236L 47.3885,54.6236L 51.3885,44.1236L 57.3885,34.6236L 63.8885,28.1236L 74.8885,20.6236L 83.3885,17.1236L 94.3885,15.1236L 105.889,14.6236L 117.889,13.6236L 129.389,15.1236L 136.889,18.6236L 146.889,23.6236L 155.889,30.1236L 162.389,37.1236L 169.389,49.1236L 170.389,60.1236L 168.889,74.1236L 164.389,81.6236L 156.889,89.6236L 147.889,99.6236L 135.889,108.124L 123.889,118.124L 117.389,129.624L 113.889,137.624L 114.16,141.157L 113.576,144.311L 110.701,145.811L 99.8885,145.624L 95.8885,142.624L 95.8885,133.624L 102.389,123.124L 110.889,110.624L 122.389,97.6236L 126.889,90.6236L 130.889,79.1236L 130.889,68.6236L 128.389,56.6236L 122.389,50.6236L 112.389,46.1236L 103.389,45.1236L 95.8885,45.6236L 86.8885,48.6236L 80.8885,54.1236L 80.8885,60.6236L 82.8885,67.1236L 90.3885,72.1236L 95.3885,75.1236L 96.8885,80.1236L 95.8885,85.6236L 92.8885,89.6236L 89.3885,93.1236L 82.8885,94.6236L 77.8886,96.1233 Z "/>
	<linearGradient id="SVGID_Fill1_" gradientUnits="objectBoundingBox" x1="0.992414" y1="0.442438" x2="1.98393" y2="0.442438" gradientTransform="rotate(165.104248 0.992414 0.442438)">
		<stop offset="0.00925926" stop-color="#FFFFFF" stop-opacity="1"/>
		<stop offset="1" stop-color="#FCFCFF" stop-opacity="0"/>
	</linearGradient>
	<path fill="url(#SVGID_Fill1_)" stroke-width="0.2" stroke-linejoin="round" d="M 123.222,20.1233L 134.555,27.7901L 143.889,35.1236L 152.222,45.4568L 155.889,54.7902L 157.222,67.1236L 155.222,79.1236L 151.889,84.7902L 156.519,86.3365L 165.889,73.7902L 167.555,64.1236L 167.222,51.1236L 160.019,39.3365L 155.555,34.1236L 153.889,31.7902L 149.222,28.7902L 142.555,23.7902L 135.889,20.7902L 129.889,19.4568L 123.222,20.1233 Z "/>
	<linearGradient id="SVGID_Fill2_" gradientUnits="objectBoundingBox" x1="0.992401" y1="0.440365" x2="1.9844" y2="0.440365" gradientTransform="rotate(165.603821 0.992401 0.440365)">
		<stop offset="0.00925926" stop-color="#FFFFFF" stop-opacity="1"/>
		<stop offset="1" stop-color="#FFFFFF" stop-opacity="0"/>
	</linearGradient>
	<path fill="url(#SVGID_Fill2_)" stroke-width="0.2" stroke-linejoin="round" d="M 80.0552,66.2068L 77.0969,64.1652L 74.7219,69.8733L 78.7219,74.2068L 82.7219,78.8736L 83.7219,84.2068L 83.3885,90.2068L 82.8469,92.2483L 87.2636,91.4983L 90.9303,89.4151L 93.7636,86.7483L 93.6803,83.2483L 94.0135,79.8318L 93.0135,76.9986L 88.3469,73.9986L 84.9302,71.8318L 81.9302,69.6652"/>
	<linearGradient id="SVGID_Fill3_" gradientUnits="objectBoundingBox" x1="1.01199" y1="0.456821" x2="2.01995" y2="0.456821" gradientTransform="rotate(160.124634 1.011991 0.456821)">
		<stop offset="0.00925926" stop-color="#FFFFFF" stop-opacity="1"/>
		<stop offset="1" stop-color="#FFFFFF" stop-opacity="0"/>
	</linearGradient>
	<path fill="url(#SVGID_Fill3_)" stroke-width="0.2" stroke-linejoin="round" d="M 105.889,161.457L 109.555,165.79L 111.889,170.457L 111.555,177.124L 110.222,183.79L 107.889,189.457L 108.555,192.457L 111.915,192.357L 115.748,190.107L 118.832,185.941L 120.498,181.024C 120.498,181.024 121.307,177.312 120.889,175.79C 120.524,174.465 119.889,170.457 119.889,170.457L 118.555,166.457L 115.222,163.457L 112.222,161.457L 105.889,161.457 Z "/>
</svg>
